X: 4055
T: OPERA REEL
R: Reel.
%R: reel
B: James Kerr "Merry Melodies" v.4 p.09 #55
Z: 2016 John Chambers <jc:trillian.mit.edu>
N: Usually played as four 4-bar strains, each repeated, not as 3 strains with lengths of 4, 8 and 6 bars.
M: C|
L: 1/8
K: D
|:\
D/D/D D2 FEFA | D/D/D (DF) EDEF |\
D/D/D D2 FEFA | BdAF E2E2 :|\
dDdD dAFA | dDdD egfe |\
dDdD dAFA | BdAF E2E2 ||
afaf gege | fefe ecBA |\
Ddfd Eege | fdec d/d/d d2 ::\
Ddfd Eege | Ddfd ecBA |\
afaf gege | fdec d/d/d d2 :|

%%sep 1 1 500
%%sep 1 1 500

